X:1
T:Title
%%score { ( 1 2 ) | ( 3 4 ) }
L:1/8
Q:1/4=122
M:3/4
K:Ab
V:1 treble nm="Grand Piano"
V:2 treble 
V:3 bass 
V:4 bass 
V:1
 [Ec]4 z2 | c4 B2 | A3 G F2 | [CE]6 | G3 F G2 | A3 G A2 | [=DB]4 z2 | B6 | c4 d2 | e4 c2 | %10
w: Wm.~J.~Kirkpatrick||||||||||
 [FB]4 [Fc]2 | [Fd]6 | A3 G F2 | [CE]4 A2 | c4 B2 | [CA]6 |] %16
w: ||||||
V:2
 z2 C,2 c2 | x6 | x6 | x6 | x6 | x6 | z2 G,2 [=Dc]2 | x6 | x6 | x6 | x6 | x6 | E4 z2 | x6 | x6 | %15
 x6 |] %16
V:3
 A,4 [E,A,E]2 | [A,E]4 [E,G,D]2 | [F,A,C]4 [D,A,D]2 | [A,,A,]6 | [E,B,D]4 [E,B,D]2 | %5
 [F,A,C]4 [E,A,C]2 | F,2 z2 [B,,A,]2 | [E,G,E]6 | [A,E]4 [A,B,E]2 | [A,CE]4 [A,C_G]2 | %10
 [D,D]4 [C,=A,]2 | [B,,B,]6 | [C,E,]4 [D,A,D]2 | [A,,A,]4 [F,A,C]2 | [E,A,E]4 [E,G,D]2 | %15
 [A,,A,]6 |] %16
V:4
 A,,2 z2 z2 | x6 | x6 | x6 | x6 | x6 | B,,4 z2 | x6 | x6 | x6 | x6 | x6 | x6 | x6 | x6 | x6 |] %16

